X: 10542
T: ROB ROY'S REEL
C: Arranged by W. B. Laybourn
R: reel
B: K\"ohler's Violin Repository, v.1, 1885 p.54 #2
F: http://www.archive.org/details/klersviolinrepos01edin
Z: 2011 John Chambers <jc:trillian.mit.edu>
M: 2/4
L: 1/8
K: D
|:\
vFABA | FABA | Adef | (g<e)e2 | FABA | FABA | Bcde | (f<d)d2 ||
vfdge | afed | Bcde | (c/B/A)A2 | fdge | afec | Bcde | (f<d)d2 "_Fine"|]

%%sep 2 1 500

